UI/Travel-Transport-Tracking/SVG/directions_solid_24px.svg

<svg width="24" height="24" viewBox="0 0 24 24" fill="none" xmlns="http://www.w3.org/2000/svg">
<path d="M21.6301 15.65L15.7701 19.78C15.5688 19.9239 15.3275 20.0008 15.0801 20C14.824 20.023 14.569 19.9464 14.3679 19.7863C14.1668 19.6262 14.0351 19.3947 14.0001 19.14V18H13.0001C12.2044 18 11.4414 18.3161 10.8788 18.8787C10.3162 19.4413 10.0001 20.2044 10.0001 21V22H4.00009V10H2.86009C2.6054 9.96505 2.37396 9.83334 2.21382 9.63224C2.05367 9.43113 1.97714 9.17607 2.00009 8.92002C1.99929 8.67264 2.07624 8.43127 2.22009 8.23002L6.35009 2.37002C6.41781 2.25825 6.51321 2.16583 6.62707 2.10169C6.74093 2.03754 6.86941 2.00385 7.00009 2.00385C7.13078 2.00385 7.25925 2.03754 7.37311 2.10169C7.48697 2.16583 7.58237 2.25825 7.65009 2.37002L11.7801 8.23002C11.9239 8.43127 12.0009 8.67264 12.0001 8.92002C12.023 9.17607 11.9465 9.43113 11.7864 9.63224C11.6262 9.83334 11.3948 9.96505 11.1401 10H10.0001V12.52C10.9623 12.1737 11.9775 11.9977 13.0001 12H14.0001V10.86C14.0351 10.6053 14.1668 10.3739 14.3679 10.2137C14.569 10.0536 14.824 9.97706 15.0801 10C15.3275 9.99921 15.5688 10.0762 15.7701 10.22L21.6301 14.35C21.7419 14.4177 21.8343 14.5131 21.8984 14.627C21.9626 14.7409 21.9963 14.8693 21.9963 15C21.9963 15.1307 21.9626 15.2592 21.8984 15.373C21.8343 15.4869 21.7419 15.5823 21.6301 15.65Z" fill="#0F1621"/>
</svg>

<svg xmlns="http://www.w3.org/2000/svg" width="24" height="24" viewBox="0 0 24 24"><rect width="24" height="24" style="fill:none"/><path d="M21.63,15.65l-5.86,4.13a1.18,1.18,0,0,1-.69.22A1,1,0,0,1,14,19.14V18H13a3,3,0,0,0-3,3v1H4V10H2.86A1,1,0,0,1,2,8.92a1.18,1.18,0,0,1,.22-.69L6.35,2.37a.76.76,0,0,1,1.3,0l4.13,5.86a1.18,1.18,0,0,1,.22.69A1,1,0,0,1,11.14,10H10v2.52A8.8,8.8,0,0,1,13,12h1V10.86A1,1,0,0,1,15.08,10a1.18,1.18,0,0,1,.69.22l5.86,4.13A.76.76,0,0,1,21.63,15.65Z"/></svg>
